X: 280
T:The Glen Fiddler
M:2/2/
L:1/8
C:Ed Reavy
Z: transcribed by Bil 3/00
R:Reel
N:Ed was told there lived near the edge of the
N:glen a fiddler unlike any he had ever heard. 
N:To this day he wonders 
N:about that solitary fiddler and the strange 
N:tunes he played beside a 
N:distant glen in Cavan. Although he never saw 
N:him play, Ed has heard 
N:some of those same strange tunes in his 
N:dreams. And they have become 
N:his finest compositions.
Z:Joe Reavy
K:G
DF|G2 dG BGdG|=F2 cF AFcF|G2 dG Bcd=f|ec (3cBc BGFA|
G2 dG BGdG|=F2 cF AFcF|GABc (3dcB (3cBA|1 GBA=F DGG^F:|
2 GBA=F DGG^f|| g2 dg Bgde|=f2 a^f gfaf|g2 dg Bgdg|
fd (3cBA BGGf|g2 dg Bgde|=f a^f gfaf|gbag fagf|defd cAFA||
